!!!OTL: HANS HAT HOSEN AN UND DIE SIND BUNT
!!!ARE: Europa, Mitteleuropa, Deutschland, Rheinland
!!!SCT: E1163
!!!YEM: Copyright 1995, estate of Helmut Schaffrath.
**kern
*ICvox
*Ivox
*M2/4
*k[f#]
*G:
=1
{4g
4dd
=2
8.b
16a
8g}
{8g
=3
4a
4f#
=4
4g
4r}
=5
{4g
4dd
=6
8.b
16a
8a}
{8g
=7
4a
4cc#
=8
4dd
8r}
{8dd
=9
8.cc
16a
8a
8dd
=10
8.b
16a
8g}
{16g
16f#
=11
8e
8g
8cc
8ee
=12
8.dd
16cc
8b}
{8b
=13
4cc
8r
8a
=14
4b
8r}
{8g
=15
8a
8a
8f#
8f#
=16
4g
8r}
{8b
=17
4cc
8r
8a
=18
4b
8r}
{8g
=19
8a
8a
8f#
8f#
=20
4g
4r}
==
!!!AGN: Trink -, Zech - Lied
!!!ONB: ESAC (Essen Associative Code) Database: ERK3
!!!AMT: simple duple
!!!AIN: vox
!!!EED: Helmut Schaffrath
!!!EEV: 1.0
*-
